flags/mx.svg

<svg width="512" height="512" viewBox="0 0 512 512" fill="none" xmlns="http://www.w3.org/2000/svg">
<path d="M384 512L128 512L128 -1.11901e-05L384 1.11901e-05L384 512Z" fill="var(--flag-palette-white, #eeeeee)"/>
<path d="M144 512L-5.28978e-05 512L0 -6.29444e-06L144 6.29444e-06L144 512Z" fill="var(--flag-palette-dark-green, #496e2d)"/>
<path d="M512 512L368 512L368 -6.29444e-06L512 6.29444e-06L512 512Z" fill="var(--flag-palette-bright-red, #d80027)"/>
<path d="M256 277V287H268L278 265L256 277Z" fill="var(--flag-palette-dark-yellow, #ffc635)"/>
<path d="M160 242C160 267.461 170.114 291.879 188.118 309.882C206.121 327.886 230.539 338 256 338C281.461 338 305.879 327.886 323.882 309.882C341.886 291.879 352 267.461 352 242H341C341 264.543 332.045 286.163 316.104 302.104C300.163 318.045 278.543 327 256 327C233.457 327 211.837 318.045 195.896 302.104C179.955 286.163 171 264.543 171 242H160ZM199 259L195 261C193 263 193 267 196 269C211 283 230 291 250 293V310H262V293C282 291 301 283 316 269C319 267 319 263 317 261C315 259 311 259 309 261C294.616 274.437 275.684 281.938 256 282C237 282 218 274 203 261L199 259Z" fill="var(--flag-palette-dark-green, #496e2d)"/>
<path d="M256 316C242 316 228 311 216 303L222 294C242 307 270 307 290 294L297 303C285 311 271 316 256 316Z" fill="var(--flag-palette-light-blue, #338af3)"/>
<path d="M256 174C278 185 268 207 267 208L265 204C260 193 247 186 234 186V197C240 197 245 202 245 208C238 215 236 225 241 234L245 242L232 265L261 258L279 276V265L290 276L313 265L278 244L273 223L301 239C305 250 313 260 324 265C333 182 282 174 263 174H256Z" fill="var(--flag-palette-dark-brown, #584528)"/>
<path d="M222 271C207 271 189 259 184 231L195 229C199 252 213 260 222 260C225 260 227 259 228 257C228 255 228 254 222 252C219 251 215 250 212 247C202 235 216 223 223 217C224 216 225 215 224 214C224 214 222 212 219 212C212 212 207 208 205 201C203 195 207 188 213 184L218 195C216 195 216 197 216 199C216 199 217 201 219 201C226 201 233 205 235 210C236 213 237 219 230 225C223 232 219 237 221 240L226 241C231 243 240 246 239 258C238 266 231 271 222 271Z" fill="var(--flag-palette-green, #6da544)"/>
<path fill-rule="evenodd" clip-rule="evenodd" d="M234 186L222 197V208L240 199C243 198 243 194 241 192L234 186ZM172 283C176.418 283 180 279.418 180 275C180 270.582 176.418 267 172 267C167.582 267 164 270.582 164 275C164 279.418 167.582 283 172 283ZM197 302C197 306.418 193.418 310 189 310C184.582 310 181 306.418 181 302C181 297.582 184.582 294 189 294C193.418 294 197 297.582 197 302ZM216 331C220.418 331 224 327.418 224 323C224 318.582 220.418 315 216 315C211.582 315 208 318.582 208 323C208 327.418 211.582 331 216 331ZM305 323C305 327.418 301.418 331 297 331C292.582 331 289 327.418 289 323C289 318.582 292.582 315 297 315C301.418 315 305 318.582 305 323ZM324 310C328.418 310 332 306.418 332 302C332 297.582 328.418 294 324 294C319.582 294 316 297.582 316 302C316 306.418 319.582 310 324 310ZM349 275C349 279.418 345.418 283 341 283C336.582 283 333 279.418 333 275C333 270.582 336.582 267 341 267C345.418 267 349 270.582 349 275Z" fill="var(--flag-palette-dark-yellow, #ffc635)"/>
<path d="M262 299H250C243.925 299 239 303.925 239 310C239 316.075 243.925 321 250 321H262C268.075 321 273 316.075 273 310C273 303.925 268.075 299 262 299Z" fill="var(--flag-palette-gold, #ff9811)"/>
</svg>

<svg xmlns="http://www.w3.org/2000/svg" width="512" height="512" fill="none"><path fill="var(--flag-palette-white, #eeeeee)" d="M384 512H128V0h256z"/><path fill="var(--flag-palette-dark-green, #496e2d)" d="M144 512H0V0h144z"/><path fill="var(--flag-palette-bright-red, #d80027)" d="M512 512H368V0h144z"/><path fill="var(--flag-palette-dark-yellow, #ffc635)" d="M256 277v10h12l10-22z"/><path fill="var(--flag-palette-dark-green, #496e2d)" d="M160 242a96 96 0 1 0 192 0h-11a85 85 0 1 1-170 0zm39 17-4 2c-2 2-2 6 1 8 15 14 34 22 54 24v17h12v-17c20-2 39-10 54-24 3-2 3-6 1-8s-6-2-8 0a78 78 0 0 1-53 21c-19 0-38-8-53-21z"/><path fill="var(--flag-palette-light-blue, #338af3)" d="M256 316c-14 0-28-5-40-13l6-9c20 13 48 13 68 0l7 9c-12 8-26 13-41 13"/><path fill="var(--flag-palette-dark-brown, #584528)" d="M256 174c22 11 12 33 11 34l-2-4c-5-11-18-18-31-18v11c6 0 11 5 11 11-7 7-9 17-4 26l4 8-13 23 29-7 18 18v-11l11 11 23-11-35-21-5-21 28 16c4 11 12 21 23 26 9-83-42-91-61-91z"/><path fill="var(--flag-palette-green, #6da544)" d="M222 271c-15 0-33-12-38-40l11-2c4 23 18 31 27 31q4.5 0 6-3c0-2 0-3-6-5-3-1-7-2-10-5-10-12 4-24 11-30 1-1 2-2 1-3 0 0-2-2-5-2-7 0-12-4-14-11-2-6 2-13 8-17l5 11c-2 0-2 2-2 4 0 0 1 2 3 2 7 0 14 4 16 9 1 3 2 9-5 15-7 7-11 12-9 15l5 1c5 2 14 5 13 17-1 8-8 13-17 13"/><path fill="var(--flag-palette-dark-yellow, #ffc635)" fill-rule="evenodd" d="m234 186-12 11v11l18-9c3-1 3-5 1-7zm-62 97a8 8 0 1 0 0-16 8 8 0 0 0 0 16m25 19a8 8 0 1 1-16 0 8 8 0 0 1 16 0m19 29a8 8 0 1 0 0-16 8 8 0 0 0 0 16m89-8a8 8 0 1 1-16 0 8 8 0 0 1 16 0m19-13a8 8 0 1 0 0-16 8 8 0 0 0 0 16m25-35a8 8 0 1 1-16 0 8 8 0 0 1 16 0" clip-rule="evenodd"/><path fill="var(--flag-palette-gold, #ff9811)" d="M262 299h-12a11 11 0 0 0 0 22h12a11 11 0 0 0 0-22"/></svg>
